src/assets/svg/Brand-Trello.svg

<svg xmlns="http://www.w3.org/2000/svg" id="Layer_1" x="0" y="0" version="1.1" viewBox="0 0 885 272" xml:space="preserve">
  <defs/>
  <g id="Page-1">
    <g id="Original-Assets" transform="translate(-279 -262)">
      <g id="Group" transform="translate(229 198)">
        <g id="Trello-Logo">
          <g id="Trello-Logo---Blue">
            <g id="Logo" transform="translate(100 65)">
              <linearGradient id="Type_1_" x1="87.2718" x2="87.2718" y1="530.907" y2="529.907" gradientTransform="matrix(600.336 0 0 -236.9664 -51857.2305 125807.125)" gradientUnits="userSpaceOnUse">
                <stop offset="0" stop-color="#0091e6"/>
                <stop offset="1" stop-color="#0079bf"/>
              </linearGradient>
              <path id="Type" fill="url(#Type_1_)" d="M673.3 177.6c-12.8 5.2-22.8 23.2-38.2 33.4-1 .6-1.9 1-2.5 1-1.3 0-2.9-1.3-2.9-7 0-19.6 6.3-29.1 11.7-43.1 18.7-48.5 50.7-90 79.2-135.3 2.2-3.5 3.5-7.3 3.5-11.4 0-3.5-1.3-6.3-2.9-9.8C720 2.5 714.3 0 708 0c-3.5 0-6.7.3-10.8.3-14.9 0-18.1 21.9-21.5 27.6-23.8 40.2-51 90-64.9 125.1-3.1 7.9-6.4 15.8-8.9 23.9-13.8 4-24.1 23.4-40.2 34.1-1 .6-1.9 1-2.5 1-1.3 0-2.9-1.3-2.9-7 0-19.6 6.3-29.1 11.7-43.1 18.7-48.5 50.7-90 79.2-135.3 2.2-3.5 3.5-7.3 3.5-11.4 0-3.5-1.3-6.3-2.9-9.8-1.3-2.9-7-5.4-13.3-5.4-3.5 0-6.7.3-10.8.3-14.9 0-18.1 21.9-21.5 27.6-23.8 40.2-51 90-64.9 125.1-1.1 2.9-2.2 5.7-3.4 8.6-.3.2-.7.4-1.1.6-16.2 9.5-29.8 26.3-49.4 37.7-3.8 2.2-15.5 10.5-25 10.5-2.2 0-4.1-.6-6-1.6-2.9-1.3-5.7-7.3-5.7-9.2 0-1.6.3-1.9 3.5-3.8 27.9-16.8 50.7-40.9 70.3-64.9 7.3-8.9 16.8-26.3 16.8-39 0-8.2-2.9-17.7-12.7-21.2-7-2.5-14.9-3.8-21.2-3.8-16.8 0-29.1 7.6-36.1 14.9-7.1 7.6-14 15.4-20.3 23.4-6.7-5.8-16.1-8.2-25-8.2-10.5 0-30.1 13-40.2 20.6-1.6 1.3-2.5 1.9-3.2 1.9-.3 0-.6-.3-.6-1 0-.3.6-3.2.6-8.2 0-4.4-1-10.1-5.1-17.1-1-1.6-6.7-5.1-13.6-5.1-8.6 0-16.5 4.1-16.5 8.6 0 3.2 2.9 4.4 2.9 7.3 0 1.6-1.3 8.9-3.2 15.8-5.4 20.3-12 40.2-19 60.2-3.8 11.1-16.5 20.9-16.5 32.9 0 3.8 2.5 8.9 6 12.7 5.7 6.3 9.2 8.6 14.3 8.6 2.2 0 4.8-.6 7-2.5 4.8-4.1 7.3-8.2 8.6-13.9 8.2-37.4 32-62.7 58.3-79.5 8.9-5.7 20.9-11.7 22.5-11.7 1.6 0 4.2.7 6.7 1.5-7.4 12-13.3 24.6-17.2 38.1-1.3 4.4-1.9 8.6-1.9 13 0 7.3 1.6 14.9 4.1 22.2 3.5 10.1 9.2 19 17.1 23.1 14.6 7.6 25 11.7 34.5 11.7 5.4 0 9.5-1 13.9-3.5 20.8-11.8 33.6-20.7 42.8-28.7.3 8 1.8 12.5 7.6 18.5 5.7 6 14.6 11.4 26.3 13.9 1.9.3 3.8.6 5.7.6 13.4 0 26.3-10.9 36.3-21.7 1.2 2.4 2.8 4.6 5.2 7.1 5.7 6 14.6 11.4 26.3 13.9 1.9.3 3.8.6 5.7.6 15.7 0 30.7-15 41.1-27.2 3.5 7.2 13.1 14.2 24.8 19.9 3.2 1.6 7 2.5 10.5 2.5 13.6 0 23.4-11.1 31-19.3 19.6-21.5 30.4-48.2 38.6-81.7.6-2.5 1.6-3.5 2.9-3.5 3.2 0 7.3 0 11.7-.6 8.6-1.3 15.2-4.1 23.1-5.4 4.8-1 4.1-2.5 8.6-4.1 3.2-1.3 5.7-2.5 5.7-5.7 0-5.4-9.8-11.1-24.7-11.1-11.7 0-18.7 1-23.4 1-7.3 0-9.2-2.2-13.9-14.6 0 0 4.8 12.4 0 0-1-2.5-1.9-3.8-4.8-6.3-6.7-5.7-14.9-7.6-21.5-7.6-15.8 0-29.5 16.2-39 29.8-2.2 3.2-5.4 5.7-7.6 9.2-13.2 19.5-25.7 41.6-27.2 65.4zm-405-107.9c7.9 0 12.4-.6 13.3-.6 1 0 1.6.3 1.6 1.3 0 .6-.3 1.6-2.5 6.3-19.3 41.5-32.6 83.6-44.4 130.2-.3 1.3-1.3 6-1.3 10.8 0 4.4 1.3 9.2 5.7 11.7 8.6 5.1 15.5 7.3 20.3 7.3 7 0 10.5-4.4 10.5-11.7 0-6.3.3-13 1.3-18.1 8.9-46.6 22.2-83 42.8-121 9.8-18.1 11.1-19 11.1-20.6 0-.6-.3-1.6-1-2.5 12.7-2.9 27.9-4.8 41.8-4.8 1.6 0 7.9 2.2 8.9 3.2 2.2 2.2 4.4 4.4 8.2 4.4 3.2 0 8.6-2.2 10.5-3.5 4.4-3.2 6.7-6.7 6.7-12.4 0-5.4-20-18.7-33.9-18.7-17.1 0-32.6 2.2-47.2 5.1-6.3 1.3-29.1 4.8-45.6 4.8-15.8 0-14.9-2.2-21.5-2.2-3.8 0-5.7 1.9-7.3 3.5s-2.5 7.9-2.5 13.6c0 2.9 0 5.1 1.6 7 4.5 5.6 13.7 6.9 22.9 6.9 0 0-9.2 0 0 0zM503 95.4c0 2.9-1 4.8-4.8 10.8-3.8 6-2.2 6-7 12.4-9.2 12.4-20.6 24.7-35.5 38.3-4.1 3.8-4.8 3.8-5.4 3.8-.3 0-1-.3-1-1 0-1 .3-2.2 3.5-8.9 9.8-20.6 21.9-34.2 35.2-47.5 7.3-7.3 11.7-9.8 13.3-9.8 1.1 0 1.7.3 1.7 1.9 0 0 0-1.6 0 0zm243.6 8.2c.3 0 .6.3 1 1 .3 1 1 1.9 2.5 3.2 1.3 1 1.3 5.4 1.3 8.9 0 30.7-17.4 56.1-34.5 81.7-3.8 5.7-6 6.7-7.9 6.7-1.6 0-4.1-4.1-5.1-6.7-1.3-3.5-1.6-7.6-1.6-9.2 0-24.7 23.4-61.5 39-81.7 2.5-3.6 4.4-3.9 5.3-3.9 0 0-.9 0 0 0z"/>
              <g id="Mark" transform="translate(0 35)">
                <linearGradient id="Board_1_" x1="86.815" x2="86.815" y1="495.705" y2="494.705" gradientTransform="matrix(200 0 0 -200 -17263 99141)" gradientUnits="userSpaceOnUse">
                  <stop offset="0" stop-color="#0091e6"/>
                  <stop offset="1" stop-color="#0079bf"/>
                </linearGradient>
                <path id="Board" fill="url(#Board_1_)" d="M25 0h150c13.8 0 25 11.2 25 25v150c0 13.8-11.2 25-25 25H25c-13.8 0-25-11.2-25-25V25C0 11.2 11.2 0 25 0z"/>
                <path id="Right-List" d="M125 26h37c6.6 0 12 5.4 12 12v63.5c0 6.6-5.4 12-12 12h-37c-6.6 0-12-5.4-12-12V38c0-6.6 5.4-12 12-12z" class="st2"/>
                <path id="Left-List" d="M38 26h37c6.6 0 12 5.4 12 12v113.5c0 6.6-5.4 12-12 12H38c-6.6 0-12-5.4-12-12V38c0-6.6 5.4-12 12-12z" class="st2"/>
              </g>
            </g>
          </g>
        </g>
      </g>
    </g>
  </g>
</svg>

<svg viewBox="0 0 200 200" xmlns="http://www.w3.org/2000/svg">
    <defs>
        <linearGradient x1="50%" y1="0%" x2="50%" y2="100%" id="linearGradient-1">
            <stop stop-color="#0091E6" offset="0%"></stop>
            <stop stop-color="#0079BF" offset="100%"></stop>
        </linearGradient>
    </defs>
    <g stroke="none" stroke-width="1" fill="none" fill-rule="evenodd">
        <g fill-rule="nonzero">
            <g>
                <path d="M25,0 L175,0 C188.8,0 200,11.2 200,25 L200,175 C200,188.8 188.8,200 175,200 L25,200 C11.2,200 0,188.8 0,175 L0,25 C0,11.2 11.2,0 25,0 Z" fill="url(#linearGradient-1)"></path>
                <path d="M125,26 L162,26 C168.6,26 174,31.4 174,38 L174,101.5 C174,108.1 168.6,113.5 162,113.5 L125,113.5 C118.4,113.5 113,108.1 113,101.5 L113,38 C113,31.4 118.4,26 125,26 Z" fill="#FFFFFF"></path>
                <path d="M38,26 L75,26 C81.6,26 87,31.4 87,38 L87,151.5 C87,158.1 81.6,163.5 75,163.5 L38,163.5 C31.4,163.5 26,158.1 26,151.5 L26,38 C26,31.4 31.4,26 38,26 Z" fill="#FFFFFF"></path>
            </g>
        </g>
    </g>
</svg>
